X:1
T:Title
%%score { ( 1 3 ) | ( 2 4 ) }
L:1/8
M:4/4
K:Ab
V:1 treble nm="Grand Piano"
V:3 treble 
V:2 bass 
V:4 bass 
V:1
 z8[Q:1/4=100] | [E,CE]2 [Cc]2 B>A G>A | e2- [DGe]2 [DG]2 [DE]2 | [DE]2 [DGd]2 c>B =A>B | %4
[M:3/4] [CEAc]6[K:bass] |[M:1/4][K:treble] E2 |[M:4/4] [CE]2 [Cc]2 [CB]2 [A,EG]2 | e4 z4 | %8
 [EB]2 [Ec]2 [=DG]2 [DF]2 |[M:3/4] [DB]6 |[M:1/4] z2 |[M:4/4] [Ec]2 [Fc]c [Bc]2 [Ac]2 | [Gd]6 z2 | %13
 [Ed]2 [Fd]d [ce]2 [Bd]2 | [Ec]6 z2 | [Fd]2 [=Ed]d [Af]2 [Fd]2 | [Ec]4 z4 | [B=d]2 d2 d2 d2 | %18
 [Bd]6 z2 | [Ec]2 [Fc]c [Bc]2 [Ac]2 | [Gd]6 z2 | [Ed]2 [Gd]d [Bd]2 [Ed]2 | [ce]6 z2 | %23
 [Fd]2 [=Ed]d [Bd]2 [Ad]d | [Ec]4 z4 | [B=d]2 [Fd]d [G_d]2 [Ed]2 |[M:3/4] [Ac]6 |] %27
V:2
 z4 z2 E2 | A,,2 [E,,E,]2 [A,,E,]2 [E,,E,]2 | [B,,E,]2 [E,,E,]2 [B,,E,]2 [E,,E,]2 | %3
 [G,,E,]2 [E,,E,]2 [G,,E,]2 [E,,E,]2 |[M:3/4] [A,,E,]2 E,,2 A,,2 |[M:1/4] [E,,E,]2 | %6
[M:4/4] [A,,E,]2 [E,,E,]2 z z/ A/ z z/ A/ | [B,,G,]2 [B,,G,]2 [B,,G,]2 [B,,B,]2 | %8
 [B,,G,]2 [B,,A,]2 [B,,B,]2 [B,,A,]2 |[M:3/4] [E,G,]6 |[M:1/4] E2 |[M:4/4] z2 [E,A,C]2 z4 | %12
 B,,2 E,2 E,2 E2 | z2 [E,G,D]2 z4 | A,,2 E,2 E,2 E2 | z2 [F,A,D]2 z4 | A,,2 E,2 [E,A,C]2 [E,A,C]2 | %17
 B,,2[K:treble] [A,B,=DA]2 [A,B,D=E]2 [A,B,DF]2 | E,,2 E,2 E,2 E2 | z2 [E,A,C]2 z4 | %20
 B,,2 E,2 E,2 E2 | z2 [E,G,D]2 z4 | A,,2 E,2 E,2 A2 | z2 [F,A,D]2 z2 [F,A,D]2 | %24
 A,,2 E,2 C,2 [E,A,C]2 | z2[K:treble] [A,B,=D]2[K:bass] z4 |[M:3/4] A,2 E,2 A,,2 |] %27
V:3
 x8 | z4 C2 C2 | [DG]2 z2 z4 | z4 [DG]2 [DG]2 |[M:3/4] z2[K:bass] E,2 E,2 |[M:1/4][K:treble] x2 | %6
[M:4/4] x8 | E2 E2 [EB]2 [EG]2 | x8 |[M:3/4] x6 |[M:1/4] x2 |[M:4/4] x8 | z2 [G,D]2 [G,D]2 d2 | %13
 x8 | z2 [A,C]2 [A,C]2 c2 | x8 | z2 [A,C]2 [Ac]2 [ce]2 | x8 | z2 [G,D]2 [G,D]2 c2 | x8 | %20
 z2 [G,D]2 [G,D]2 d2 | x8 | z2 [A,C]2 [A,C]2 c2 | x8 | z2 [A,C]2 [Ac]2 [ce]2 | x8 |[M:3/4] x6 |] %27
V:4
 x8 | x8 | x8 | x8 |[M:3/4] x6 |[M:1/4] x2 |[M:4/4] z4 [A,,E,]2 C,2 | x8 | x8 | %9
[M:3/4] z2 B,,2 E,,2 |[M:1/4] x2 |[M:4/4] A,,2 z G C,2 [E,A,C]2 | x8 | E,,2 z G E,,2 [E,G,D]2 | %14
 x8 | D,,2 z F D,,2 [F,A,D]2 | x8 | x2[K:treble] x6 | x8 | A,,2 z G C,2 [E,A,C]2 | x8 | %21
 E,,2 z A E,,2 [E,G,D]2 | x8 | D,,2 z F D,,2 z F | x8 | B,,2[K:treble] z A[K:bass] E,,2 [E,G,_D]2 | %26
[M:3/4] x6 |] %27

